!!!COM: Ravel, (Joseph) Maurice
!!!OTL: Chansons madécasses (Songs of Madagascar) for Voice, Piano, Flute, and Violoncello
!!!OMV: I: Nahandove
!!!example: 299
!!!work: Rav-32
!!!OMD-full: Andante quasi allegretto
!!!OMD: Andante quasi allegretto
**kern	**text	**kern	**dynam
*grp:A	*grp:A	*grp:B	*grp:B
*part2	*part2	*part1	*part1
*staff2	*staff2	*staff1	*
*ICvox	*	*ICstr	*
*Isoprn	*	*Icello	*
*I"Soprano Solo	*	*I"Violoncello	*
*I'S. Solo	*	*I'Vc.	*
*clefG2	*	*clefF4	*
*k[]	*	*k[]	*
*C:	*	*C:	*
*M6/8	*	*M6/8	*
=1	=1	=1	=1
!	!	!LO:TX:t=[[eighth]=100]	!
!	!	!LO:TX:a:t=Sordina	!LO:DY:t=%s espressivo
4r	.	(16gLL	p
!	!	!	!
.	.	16fJ	.
.	.	8d	.
8r	.	8AJ)	.
8r	.	(8.gL	.
(32a^	Na-	.	.
16.cc	-han-	.	.
.	.	16fL	.
[8b	-do-	16d	.
.	.	16AJJ)	.
=2	=2	=2	=2
8b]	.	(8d	.
8b)	-ve,	4A)	.
(8dd	ô	.	.
8g	bel-	(8dL	.
8g	-le	8A)	.
32a^	Na-	([8g^J	.
16.cc	-han-	.	.
=3	=3	=3	=3
[4.b	-do-	16gLL]	.
.	.	16fJ	.
.	.	8d	.
.	.	8AJ)	.
8b]	.	(8gL	.
16b)	-ve!	8.f)	.
(16cc	l'oi-	.	.
16b	-seau	.	.
16b	noc-	([16dJk	.
=4	=4	=4	=4
8g	-turne	8d]	.
8e	a	4A)	.
16g	com-	.	.
16g	-men-	.	.
16a	-cé	(8dL	.
16a	ses	.	.
16b)	cris,	8e)	.
(16cc	la	.	.
32b	plei-	([8dJ	.
16.b	-ne	.	.
=5	=5	=5	=5
*M2/4	*	*M2/4	*
8g	lu-	8d]	.
8e	-ne	4A)	.
16g	bri-	.	.
16g	-lle	.	.
16a	sur	(8d	.
16a	ma	.	.
=6	=6	=6	=6
*M6/8	*	*M6/8	*
16b	tête,	4e)	.
16a	et	.	.
16g	la	.	.
16e	ro-	.	.
16d	-sée	(8E	.
16a	nai-	.	.
16e	-ssante	8AL	.
16a	hu-	.	.
16g	-mec-	8d)	.
16e	-te	.	.
16d	mes	(8EJ	.
16a	che-	.	.
=7	=7	=7	=7
[4.e	-veux._	8AL	.
.	.	8d)	.
.	.	(8EJ	.
8e])	.	8AL)	.
8r	.	(16dL	.
.	.	16cJ)	.
8r	.	8BJ	.
=8	=8	=8	=8
4r	.	8AL	.
.	.	(16GL	.
.	.	16EJ)	.
8r	.	[8DJ	.
8r	.	4.D_	.
(8a	Voi-	.	.
8b	-ci	.	.
=9	=9	=9	=9
*M9/8	*	*M9/8	*
4cc	l'heu-	8DL]	.
.	.	(8a^	.
[8cc	-re:_	8gJ)	.
8cc])	.	8dL	.
8r	.	(16a^L	.
.	.	16g)	.
(8b	qui	(16a	.
.	.	16gJJ)	.
8a	peut	(8.dL	.
8b	t'ar-	.	.
.	.	16gk	.
8dd	-rê-	8eJ)	.
=10	=10	=10	=10
*M6/8	*	*M6/8	*
4ee	-ter,	(16BLL	.
.	.	16cJ	.
.	.	8d)	.
32dd^	Na-	([8f#X^J	.
16.b	-hahn-	.	.
8a	-do-	16f#LL]	.
.	.	16eJ	.
8a)	-ve,	8c	.
(8ee	ô	8GJ)	.
=11	=11	=11	=11
8dd	bel-	(8.f#XL	.
8dd	-le	.	.
.	.	16eL	.
32ee^	Na-	16c	.
16.b	-han-	.	.
.	.	16GJJ)	.
4a	-do-	(8cL	.
.	.	8G	.
8a)	-ve?	8DJ)	.
=12	=12	=12	=12
8r	.	(16GLL	.
.	.	16cJ	.
16r	.	8d	.
(16gi	Le	.	.
16a	lit	8eJ)	.
16a	de	.	.
8cc	feuil-	(4g	.
16cc	-les	.	.
16dd	est	.	.
16b	pré-	8e)	.
16b	-pa-	.	.
=	=	=	=
*-	*-	*-	*-
!!!system-decoration: s1,s2
!!!Xfilter: slurcheck
!!!CDT: 1875/03/07-1937/12/28
!!!CBL: Ciboure, France
!!!CDL: Paris, France
!!!CNT: French
!!!AGN: Vocal; Solo
!!!MCN:
!!!MDT: 1926/06/13
!!!MGN:
!!!MLC: Paris, France
!!!MPD: 1926
!!!MPN: Bathori, Jane
!!!ODT: 1926
!!!PDT: 1932
!!!excerpt-start-measure: 1
!!!excerpt-end-measure: 12
!!!excerpt-start-time: 0:00
!!!excerpt-end-time: 0:56
!!!excerpt-duration-sec: 56
!!!excerpt-time-signature: 6/8
!!!excerpt-tempo-beat: eighth
!!!excerpt-tempo-rate: 100
!!!excerpt-meter-type: compound
!!!excerpt-beat-group: G2
!!!excerpt-beat-subgroup: G3
!!!experiment: 1
!!!EEV: 2020/07/28
!!!ONB: Converted from MusicXML on 2020/07/28
!!!RDF**kern: i = marked note, color="hotpink", text="extra("
